!!!COM: Bach, Johann Sebastian
!!!OPR: Joh. Seb. Bachs vierstimmige Choralges‰nge
!!!XEN: Four-part Chorales
!!!OTL: 25. Christ lag in Todesbanden
!!!SCT: BWV 277
!!!SCA: Thematisch-systematisches Verzeichnis der musikalischen Werke Johann Sebastian Bach: Bach-Werke-Verzeichnis (Schmieder)
!!!YOR: Bach Gesellschaft Edition xxxix
!!!ENC: Steven Rasmussen
!!!CDT: 1685/3//-1750/7/28/
!!!OCY: Deutschland
!!!YEC: Copyright (c) 1994, 2000 Center for Computer Assisted Research in the Humanities
!!!YEM: Rights to all derivative editions reserved
!!!YEN: United States of America
**kern	**silbe	**kern	**silbe	**kern	**silbe	**kern	**silbe
*I:[SOPRANO]	*I:[SOPRANO]	*I:[ALTO]	*I:[ALTO]	*I:[TENORE]	*I:[TENORE]	*I:[BASSO]	*I:[BASSO]
*>[A,A,B]	*	*>[A,A,B]	*	*>[A,A,B]	*	*>[A,A,B]	*
*>A	*	*>A	*	*>A	*	*>A	*
*clefG2	*	*clefG2	*	*clefGv2	*	*clefF4	*
*k[]	*	*k[]	*	*k[]	*	*k[]	*
*a:	*	*a:	*	*a:	*	*a:	*
*M4/4	*	*M4/4	*	*M4/4	*	*M4/4	*
4a	Christder	4f	.	8dL	.	4D	.
.	.	.	.	8cJ	.	.	.
=1	=1	=1	=1	=1	=1	=1	=1
4g#	lagist	(8f	.	4B	.	4D	.
.	.	4e)	.	.	.	.	.
8aL	inwie-	.	.	8cL	.	8CL	.
8bJ	.	8g#	.	8dJ	.	8BBJ	.
4cc	To--der	4a	.	4e	.	(8AA	.
.	.	.	.	.	.	4A)	.
4dd	-des-er-	4b	.	8fL	.	.	.
.	.	.	.	8eJ	.	8G#	.
=2	=2	=2	=2	=2	=2	=2	=2
4cc	-ban--stan-	8b	.	8e	.	8AL	.
.	.	4a	.	4f	.	8F	.
4b	.	.	.	.	.	8D	.
.	.	8g#	.	16eLL	.	8EJ	.
.	.	.	.	16dJJ	.	.	.
4a;	-den-den	4e;	.	4c#;	.	4AA;	.
4a	f√ºrund	4e	.	4A	.	4C#	.
=3	=3	=3	=3	=3	=3	=3	=3
4f	un-hat	8eL	.	4A	.	8DL	.
.	.	8dJ	.	.	.	8FJ	.
4g	-seruns	8c#L	.	4B-	.	8EL	.
.	.	8dJ	.	.	.	8DJ	.
4a	S√ºnd'bracht	4.e	.	4A	.	8C#L	.
.	.	.	.	.	.	8AAJ	.
8gL	ge-das	.	.	4A	.	4D	.
8fJ	.	8d	.	.	.	.	.
=4	=4	=4	=4	=4	=4	=4	=4
8eL	-ge-Le-	8c#	.	8AL	.	4A	.
8dJ	.	4d	.	8F	.	.	.
4e	.	.	.	8G	.	4AA	.
.	.	8c#	.	8EJ	.	.	.
4d;	-ben,-ben.	4A;	.	4F;	.	4D;	.
=:|!	=:|!	=:|!	=:|!	=:|!	=:|!	=:|!	=:|!
*>B	*	*>B	*	*>B	*	*>B	*
4r	.	4r	.	4r	.	4r	.
=5	=5	=5	=5	=5	=5	=5	=5
8dL	Dess	4A	.	8FL	.	4.D	.
8eJ	.	.	.	8GJ	.	.	.
4f	wir	4d	.	4A	.	.	.
.	.	.	.	.	.	8C	.
4g	sol-	8dL	.	8GL	.	8BB-L	.
.	.	8cJ	.	8AJ	.	8AAJ	.
8dL	-len	8B-L	.	4B-	.	4GG	.
8eJ	.	8cJ	.	.	.	.	.
=6	=6	=6	=6	=6	=6	=6	=6
4f	fr√∂h-	8dL	.	8AL	.	8DL	.
.	.	8AJ	.	8fJ	.	8CJ	.
4g	-lich	8dL	.	8fL	.	8BB-L	.
.	.	8cJ	.	8eJ	.	8CJ	.
4a;	sein,	4c;	.	4f;	.	4FF;	.
4a	Gott	8fL	.	4c	.	8FL	.
.	.	8gJ	.	.	.	8EJ	.
=7	=7	=7	=7	=7	=7	=7	=7
4dd	lo-	8aL	.	4F	.	4D	.
.	.	8b-J	.	.	.	.	.
4cc#	-ben	8b-L	.	4G	.	4E	.
.	.	8aJ	.	.	.	.	.
4dd	und	4a	.	8dL	.	4F#	.
.	.	.	.	8cJ	.	.	.
8eeL	ihm	4e	.	4B	.	4G#	.
8ddJ	.	.	.	.	.	.	.
=8	=8	=8	=8	=8	=8	=8	=8
4cc	dank-	(8e	.	(8B	.	8AL	.
.	.	4f)	.	4A)	.	8FJ	.
4b	-bar	.	.	.	.	8DL	.
.	.	8e	.	8G#	.	8EJ	.
4a;	sein,	4e;	.	4c;	.	4AA;	.
4b	und	4f	.	4d	.	4D	.
=9	=9	=9	=9	=9	=9	=9	=9
4cc	sin-	8fL	.	8GL	.	4C	.
.	.	8eJ	.	8cJ	.	.	.
8aL	-gen	4f	.	4c	.	8FFL	.
8b-J	.	.	.	.	.	8GGJ	.
4cc	Hal-	4f	Hal-	8cL	Hal-	8AAL	.
.	.	.	.	8dJ	.	8BB-J	.
4g	-le-	[4e	-le-	8eL	-le-	8CL	.
.	.	.	.	8dJ	.	8BB-J	.
=10	=10	=10	=10	=10	=10	=10	=10
(4f	-lu-	8e]	.	8c#L	-lu-	8AAL	.
.	.	4d	-lu-	8A	.	8FF	.
4e)	.	.	.	8B-	.	8GG	.
.	.	8c#	.	16AL	.	8AAJ	.
.	.	.	.	16GJJ	.	.	.
2d;	-ja,	2d;	-ja,	2F;	-ja,	2BB-;	.
=11	=11	=11	=11	=11	=11	=11	=11
4a	Hal-	4.d	.	8AL	Hal-	4FF#	Hal-
.	.	.	.	8cJ	.	.	.
4g	-le-	.	.	4B-	-le-	4GG	-le-
.	.	8e	.	.	.	.	.
(4f	-lu-	8c#	.	4A	-lu-	2AA	-lu-
.	.	4d	.	.	.	.	.
4e)	.	.	.	[4G	.	.	.
.	.	8c#	.	.	.	.	.
=12	=12	=12	=12	=12	=12	=12	=12
1d;	-ja!	1A;	.	4G]	.	1DD;	-ja!
.	.	.	.	8F#L	.	.	.
.	.	.	.	8EJ	.	.	.
.	.	.	.	2F#;	-ja!	.	.
==|!	==|!	==|!	==|!	==|!	==|!	==|!	==|!
*-	*-	*-	*-	*-	*-	*-	*-
!!!RWG: Key is interpreted using the Humdrum key tool.
!!!END: 1994/05/11
!!!EMD: Converted from MuseData to Humdrum Dec 19, 2000, by Andreas Kornstaedt using muse2kern.
!!!EED: Craig Stuart Sapp
!!!EEV: 2024/03/31
!!!ONB: Some non-unicode characters
